!!!!SEGMENT: pl-wtm--670-sp-3678--001-011_reinecke-carl--piosenki-dla-mlodocianego-wieku-piotr-maszynski-11-kukulka-i-dziecko.krn
!!!cenid: 18xx:4763
!!!COM: Reinecke, Carl
!!!COM-rismID: pe42007
!!!CDT: 1824/06/23-1910/03/10
!!!CNT: German
!!!GTL: Piosenki dla młodocianego wieku (Piotr Maszyński)
!!!OTL: 11. Kukułka i dziecko
!!!OMV: 011
!!!PDT: 1871
!!!AGN: Secular; Song; Children
!!!YEC: Copyright 2022 Narodowy Instytut Fryderyka Chopina (https://polishscores.org)
!!!YEM: License CC-BY-4.0 (https://creativecommons.org/licenses/by/4.0)
!!!SMS-siglum: PL-Wtm
!!!SMS-shelfmark: 670 śp 3678
!!!SMS-variant:
!!!SMS-altvar:
!!!SMS-shelfwork: 001-011 G
!!!NIFC-rismSourceID: 1001185478
!!!NIFC-rismChildID: 1001185478
!!!NIFC-islandoraID: pl-wtm:57754
!!!URL-pdf-islandora: https://repozytorium.nifc.pl/islandora/object/pl-wtm%3A57754/datastream/PDF/view
!!!URL-scan: https://polish.musicsources.pl/pl/lokalizacje/galeria/druki-muzyczne/19483/9 @EN{Scan on Polish Music Sources Website} @PL{Skany w portalu Dziedzictwo Muzyki Polskiej w otwartym dostępie}
!!!IIIF:
!!!ONB-nifc:
!!!AIN: 1 piano 1 vox
!!!key: C
!!!OMD: Allegretto.
**kern	**kern	**dynam	**kern	**text	**text	**text
*part2	*part2	*part2	*part1	*part1	*part1	*part1
*staff3	*staff2	*staff2/3	*staff1	*staff1	*staff1	*staff1
*I"Fortepian.	*I"Fortepian.	*	*I"Śpiew.	*	*	*
*I'pf	*I'pf	*	*I'V	*	*	*
*Ipiano	*Ipiano	*	*Ivox	*	*	*
*ICklav	*ICklav	*	*ICvox	*	*	*
*IGacmp	*IGacmp	*	*IGsolo	*	*	*
*>[A,B,B,B,C]	*>[A,B,B,B,C]	*>[A,B,B,B,C]	*>[A,B,B,B,C]	*>[A,B,B,B,C]	*>[A,B,B,B,C]	*>[A,B,B,B,C]
*>A	*>A	*>A	*>A	*>A	*>A	*>A
*clefF4	*clefG2	*	*clefG2	*	*	*
*k[]	*k[]	*	*k[]	*	*	*
*C:	*C:	*	*C:	*	*	*
*M2/4	*M2/4	*	*M2/4	*	*	*
*	*	*	*	*v :1	*	*
8r	8g/	mf	8g/	Ku-	.	.
=1	=1	=1	=1	=1	=1	=1
*^	*^	*	*	*	*	*
4G/	8C\L	(8e/L	4c\	.	8e/	-kuł-	.	.
.	8GG\	8g/	.	.	8g/	-ko,	.	.
4G/	8D\	8f/	4c\	.	8f/	ja-	.	.
.	8GG\J	8a/J)	.	.	8a/	-keś	.	.
=2	=2	=2	=2	=2	=2	=2	=2	=2
!LO:N:vis=2.	!	!	!	!	!	!	!	!
2G/	8E\	(4g/	2c\	.	4g/	mi-	.	.
.	4GG\	.	.	.	.	.	.	.
.	.	8cc/L	.	.	8cc\	-ła,	.	.
.	8E\	8g/J)	.	.	8g/	nie	.	.
*v	*v	*	*	*	*	*	*	*
=3	=3	=3	=3	=3	=3	=3	=3
8F\L	(8a/L	2c\	.	8a/	od-	.	.
8GG\	8cc/	.	.	8cc\	-mów	.	.
8G\	8b/	.	.	8b\	proś-	.	.
8F\J	8a/J)	.	.	8a/	-bie	.	.
=4	=4	=4	=4	=4	=4	=4	=4
*^	*	*	*	*	*	*	*
(4E/	8E\L	4.g/	(4c\	.	4.g/	mej,	.	.
.	8GG\	.	.	.	.	.	.	.
4D/)	8D\	.	4B\)	.	.	.	.	.
.	8GG\J	8f/	.	.	8f/	tyś	.	.
!!LO:LB:g=original
=5	=5	=5	=5	=5	=5	=5	=5	=5
8CC/L	4CC\	(8e/L	4c\	.	8e/	in-	.	.
8GG/	.	8g/	.	.	8g/	-nym	.	.
8DD/	4DD\	8f/	4ryy	.	8f/	już	.	.
8GG/J	.	8a/J)	.	.	8a/	wró-	.	.
*	*	*v	*v	*	*	*	*	*
=6	=6	=6	=6	=6	=6	=6	=6
!LO:N:vis=8.	!	!	!	!	!	!	!
(8EE/	4.EE\	(8gL 8c/	.	8g\L	-ży-	.	.
4C/)	.	8ee/)	.	8ee\J	.	.	.
.	.	(8ee 8g'/	.	8cc\	-ła	.	.
8FF/	8ryy	8aJ 8f'/)	.	8a/	i	.	.
*v	*v	*	*	*	*	*	*
=7	=7	=7	=7	=7	=7	=7
4GG/	(8gL 8e'/	.	8g/	mnie	.	.
.	8e 8c'/	.	8e/	po-	.	.
4GG/	8f 8A'/	.	8f/	-wró-	.	.
.	8gJ 8B'/)	.	8g/	-żyć	.	.
=8	=8	=8	=8	=8	=8	=8
*ped	*	*	*	*	*	*
2C/	8e 8c/	.	4.e/	chciej!	.	.
.	8gg\	.	.	.	.	.
.	4ee^^\	.	.	.	.	.
*Xped	*	*	*	*	*	*
.	.	.	8e/	Na	.	.
=9	=9	=9	=9	=9	=9	=9
*ped	*	*	*	*	*	*
4E 4AA/	4e 4c/	p	8e/	da-	.	.
.	.	.	8e/	-ne	.	.
8EL 8AA'/	8eL 8c'/	.	8e/	za-	.	.
8EJ 8AA'/	8aJ 8c'/	.	8a/	-py-	.	.
*Xped	*	*	*	*	*	*
!!LO:LB:g=original
=10	=10	=10	=10	=10	=10	=10
*	*^	*	*	*	*	*
*ped	*	*	*	*	*	*	*
2E 2EE/	(4g/	2B\	.	4g/	-ta-	.	.
.	8e/L)	.	.	8e/	-nia	.	.
*Xped	*	*	*	*	*	*	*
.	8e/J	.	.	8e/	od-	.	.
=11	=11	=11	=11	=11	=11	=11	=11
*ped	*	*	*	*	*	*	*
4E 4AA/	(8e'/L	4c\	.	8e/	-po-	.	.
.	8e'/J)	.	.	8e/	-wiedz	.	.
4A 4AA\	(8cc'/L	4e\	.	8cc\	z łas-	.	.
*Xped	*	*	*	*	*	*	*
.	8cc'/J)	.	.	8cc\	-ki	.	.
*	*v	*v	*	*	*	*	*
=12	=12	=12	=12	=12	=12	=12
*ped	*	*	*	*	*	*
4.G 4.E;\	4.b 4.e;/	.	4.b;\	swej!	.	.
*Xped	*	*	*	*	*	*
8r	8gg'\	p	8r	.	.	.
=13	=13	=13	=13	=13	=13	=13
*ped	*	*	*	*	*	*
8r	4ee\	<	2r	.	.	.
*clefG2	*	*	*	*	*	*
8bL 8g 8e'/	.	.	.	.	.	.
8bJ 8g 8e'/	8r	.	.	.	.	.
*Xped	*	*	*	*	*	*
8r	8gg'\	.	.	.	.	.
=14	=14	=14	=14	=14	=14	=14
*ped	*	*	*	*	*	*
8r	4ee\	.	2r	.	.	.
8ccL 8g 8e 8c'/	.	.	.	.	.	.
8ccJ 8g 8e 8c'/	8r	.	.	.	.	.
*Xped	*	*	*	*	*	*
8r	8gg'\	[[	.	.	.	.
=15	=15	=15	=15	=15	=15	=15
*	*^	*	*	*	*	*
4g 4c 4G/	4ee/	4cc\	.	2r	.	.	.
4f 4d 4G/	8r	4b\	.	.	.	.	.
.	8gg'/	.	.	.	.	.	.
=	=	=	=	=	=	=	=
*ped	*	*	*	*	*	*	*
4g 4c;/	4ee;/	4cc\	.	4r;	.	.	.
*Xped	*	*	*	*	*	*	*
.	.	.	.	.	.	.	.
*	*v	*v	*	*	*	*	*
!!LO:PB:g=origina
=||	=||	=||	=||	=||	=||	=||
=16!|:	=16!|:	=16!|:	=16!|:	=16!|:	=16!|:	=16!|:
*>B	*>B	*>B	*>B	*>B	*>B	*>B
*	*	*	*	*v :2	*v :3	*v :4
!	!	!LO:DY:t=più f	!	!	!	!
4r	4cc 4g 4e^>/	f	4cc\	Je-	Je-	A
*clefF4	*	*	*	*	*	*
=17	=17	=17	=17	=17	=17	=17
8DD/	8bL 8g 8d'/	.	8b\	-że-	-że-	jak
4D\	8cc 8g 8e'/	.	8cc\	-li	-li	na
.	8b 8g 8d'/	.	8b\	grzecz-	zaw-	przysz-
8D\	8aJ 8f#X 8c'/	.	8a/	-ną	-sze	-łą
=18	=18	=18	=18	=18	=18	=18
*^	*	*	*	*	*	*
8GG/	2GG\	4g 4d 4B/	.	4g/	be-	w po-	wio-
4D/	.	.	.	.	.	.	.
.	.	8dL 8B/	.	8d/	-dę,	-rę	-snę,
8D/	.	8ccJ 8g 8e/	.	8cc\	czy	do	gdy
*v	*v	*	*	*	*	*	*
=19	=19	=19	=19	=19	=19	=19
8DD/	8bL 8f#X 8d/	.	8b\	za	ksią-	więk-
4D\	8cc 8g 8e/	.	8cc\	to	-żki	-sza
.	8b 8f# 8d/	.	8b\	na	się	już
8D\	8aJ 8c/	.	8a/	ko-	za-	u-
=20	=20	=20	=20	=20	=20	=20
*^	*	*	*	*	*	*
8GG/	2GG\	4g 4B/	.	4g/	-lę-	-bio-	-ro-
4D/	.	.	.	.	.	.	.
.	.	8dL 8B/	.	8d/	-dę	-rę,	-snę,
8D/	.	8gJ 8B/	.	8g/	do	czy	do
!!LO:PB:g=original
=21	=21	=21	=21	=21	=21	=21	=21
8GG/	2GG\	8gL 8B/	.	8g/	sta-	ma-	la-
4G/	.	8g 8B/	.	8g/	-nę	-ma,	-su
.	.	8a 8fn 8c/	.	8a/	lal-	ta-	przyj-
8G/	.	8bJ 8d/	.	8b\	-kę	-ta,	-dę
*v	*v	*	*	*	*	*	*
=22	=22	=22	=22	=22	=22	=22
4G 4C\	4cc 4e/	.	4cc\	ja,	wuj	znów,
4A 4AA^\	4ee 4cc 4e^/	.	4ee\	co	po-	czy
=23	=23	=23	=23	=23	=23	=23
(8AL 8D'\	(8ddL 8f#X 8d'/	.	8dd\	ocz-	-chwa-	znaj-
8A 8D'\	8cc 8f# 8d'/	.	8cc\	-ki	-lą	-dę
8B 8D'\	8b 8f# 8d'/	.	8b\	ży-	przy-	cie-
8cJ 8D'\)	8aJ 8f# 8d'/)	.	8a/	-we	-kład	-bie
=24	=24	=24	=24	=24	=24	=24
*ped	*	*	*	*	*	*
4B 4G\	4.dd 4.g 4.fn/	.	4.dd\	ma?	mój?	mów?
8GG/	.	.	.	.	.	.
*Xped	*	*	*	*	*	*
8r	8gg\	p	8r	.	.	.
=25	=25	=25	=25	=25	=25	=25
*ped	*	*	*	*	*	*
8r	4ee\	<	2r	.	.	.
*clefG2	*	*	*	*	*	*
8bL 8g 8e'/	.	.	.	.	.	.
8bJ 8g 8e'/	8r	.	.	.	.	.
*Xped	*	*	*	*	*	*
8r	8gg\	.	.	.	.	.
=26	=26	=26	=26	=26	=26	=26
*ped	*	*	*	*	*	*
8r	4ee\	.	2r	.	.	.
8ccL 8g 8e 8c'/	.	.	.	.	.	.
8ccJ 8g 8e 8c'/	8r	.	.	.	.	.
*Xped	*	*	*	*	*	*
8r	8gg\	[[	.	.	.	.
!!LO:LB:g=original
=27	=27	=27	=27	=27	=27	=27
*	*^	*	*	*	*	*
4g 4c 4G/	4ee/	4cc\	>	2r	.	.	.
4f 4d 4G/	8r	4b\	.	.	.	.	.
.	8gg/	.	.	.	.	.	.
=	=	=	=	=	=	=	=
4g 4c;/	4ee;/	4cc\	]]	4r;	.	.	.
*	*v	*v	*	*	*	*	*
=28:|!	=28:|!	=28:|!	=28:|!	=28:|!	=28:|!	=28:|!
*>C	*>C	*>C	*>C	*>C	*>C	*>C
*	*	*	*	*v :5	*	*
4r	8r	.	8r	.	.	.
.	8g/	mf	8g/	Ku-	.	.
*clefF4	*	*	*	*	*	*
=29	=29	=29	=29	=29	=29	=29
*^	*^	*	*	*	*	*
4G/	8C\L	(8e/L	4c\	.	8e/	-kuł-	.	.
.	8GG\	8g/	.	.	8g/	-ko	.	.
4G/	8D\	8f/	4c\	.	8f/	na	.	.
.	8GG\J	8a/J)	.	.	8a/	tem	.	.
=30	=30	=30	=30	=30	=30	=30	=30	=30
2G/	8E\	(4g/	2c\	.	4g/	do-	.	.
.	4GG\	.	.	.	.	.	.	.
.	.	8cc/L	.	.	8cc\	-syć,	.	.
.	8E\	8g/J)	.	.	8g/	bo-	.	.
*v	*v	*	*	*	*	*	*	*
=31	=31	=31	=31	=31	=31	=31	=31
(8F/L	8a/L	2c\	.	8a/	-wiem,	.	.
8GG/	8cc/	.	.	8cc\	że	.	.
8G/	8b/	.	.	8b\	nu-	.	.
8F/J)	8a/J	.	.	8a/	-dzić	.	.
=32	=32	=32	=32	=32	=32	=32	=32
*^	*	*	*	*	*	*	*
(4E/	8E\L	4.g/	(4c\	.	4.g/	źle,	.	.
.	8GG\	.	.	.	.	.	.	.
4D/)	8D\	.	4B\)	.	.	.	.	.
.	8GG\J	8f/	.	.	8f/	o	.	.
!!LO:LB:g=original
=33	=33	=33	=33	=33	=33	=33	=33	=33
(<8CC/L	4CC\	(8e/L	4c\	.	8e/	wię-	.	.
8GG/	.	8g/	.	.	8g/	-cej	.	.
8DD/	4DD\	8f/	4B\	.	8f/	nie	.	.
8GG/J)	.	8a/J)	.	.	8a/	śmiem	.	.
*	*	*v	*v	*	*	*	*	*
=34	=34	=34	=34	=34	=34	=34	=34
!LO:N:vis=8.	!	!	!	!	!	!	!
(8EE/	4.EE\	8gL 8c/	.	8g\L	pro-	.	.
4C/)	.	8ee/	.	8ee\J	.	.	.
.	.	(8cc 8g'/	.	8cc\	-sić,	.	.
8FF/	8ryy	8aJ 8f'/)	.	8a/	a	.	.
*v	*v	*	*	*	*	*	*
=35	=35	=35	=35	=35	=35	=35
4GG/	(8gL 8e'/	.	8g/	te-	.	.
.	8e 8c'/	.	8e/	-raz	.	.
4GG/	8f 8A'/	.	8f/	że-	.	.
.	8gJ 8B'/)	.	8g/	-gnam	.	.
=36	=36	=36	=36	=36	=36	=36
*ped	*	*	*	*	*	*
2C/	8e 8c/	.	4.e/	cię	.	.
.	8gg'\	.	.	.	.	.
.	4ee^^\	.	.	.	.	.
*Xped	*	*	*	*	*	*
.	.	.	8g/	A-	.	.
=37	=37	=37	=37	=37	=37	=37
*ped	*	*	*	*	*	*
2G 2E 2C\	8r	<	4e/	-dieu,	.	.
.	8gg'\	.	.	.	.	.
.	4ee\	.	8r	.	.	.
*Xped	*	*	*	*	*	*
.	.	.	8g/	a-	.	.
=38	=38	=38	=38	=38	=38	=38
*ped	*	*	*	*	*	*
2G 2E 2BB\	8r	.	4e/	-dieu,	.	.
.	8gg'\	.	.	.	.	.
.	4ee\	[[	8r	.	.	.
*Xped	*	*	*	*	*	*
.	.	.	8g/	ku-	.	.
!!LO:LB:g=original
=39	=39	=39	=39	=39	=39	=39
4G 4GG/	4e 4c/	>	8cc\	-kuł-	.	.
.	.	.	8g/	-ko	.	.
4G 4GG/	4f 4B/	.	8f/	że-	.	.
.	.	.	8d/	-gnam	.	.
=40	=40	=40	=40	=40	=40	=40
*ped	*	*	*	*	*	*
4.G 4.C\	8e 8c/	.	4e/	cię,	.	.
.	8gg\	]	.	.	.	.
.	4ee\	.	8r	.	.	.
8r	.	.	8g/	a-	.	.
=41	=41	=41	=41	=41	=41	=41
2G 2E 2C\	8r	.	4e/	-dieu,	.	.
.	8gg\	.	.	.	.	.
.	4ee\	.	8r	.	.	.
*Xped	*	*	*	*	*	*
.	.	.	8g/	a-	.	.
=42	=42	=42	=42	=42	=42	=42
*ped	*	*	*	*	*	*
2G 2E 2BB\	8r	.	4e/	-dieu,	.	.
.	8gg\	.	.	.	.	.
.	4ee\	.	8r	.	.	.
*Xped	*	*	*	*	*	*
.	.	.	8g/	ku-	.	.
*clefG2	*	*	*	*	*	*
=43	=43	=43	=43	=43	=43	=43
4e 4c 4G/	2r	>	8cc\	-kuł-	.	.
.	.	.	8g/	-ko	.	.
4f 4B 4G/	.	.	8f/	że-	.	.
.	.	.	8d/	-gnam	.	.
=44	=44	=44	=44	=44	=44	=44
*ped	*	*	*	*	*	*
4e 4c/	8r	.	4c/	cię,	.	.
.	8gg\	.	.	.	.	.
4r	4ee\	]]	8r	.	.	.
.	.	.	8g/	a-	.	.
*clefF4	*	*	*	*	*	*
=45	=45	=45	=45	=45	=45	=45
4c 4G 4C\	8r	p	4e/	-dieu,	.	.
.	8gg'\L	.	.	.	.	.
4r	8ee'~~\	.	8r	.	.	.
.	8gg'\J	.	8g/	a-	.	.
=46	=46	=46	=46	=46	=46	=46
2c 2G 2C;\	2ee;\	.	2cc;\	-dieu.	.	.
*Xped	*	*	*	*	*	*
==	==	==	==	==	==	==
*-	*-	*-	*-	*-	*-	*-
!!!system-decoration: s1{(s2,s3)}
!!!RDF**kern: > = above
!!!RDF**kern: < = below
!!!ENC: Andrzej Gręziak
!!!END: 2025-03-25
!!!EED: Marta Lawrence
!!!EEV: 2025-03-30
